X: 36485
T: Seonaidh's Tune
R: strathspey
M: 4/4
K: Dmajor
d>A|:d>e f>g f<e f<f|d>e f>g f<d e>B|e>f g>f e>d c>B|1 A>c e>g e<f f<A:|2 A>c e>g f<d d>f||
|:a2 a>g f<e f2|f>g a>g f<d e>B|e>f g>f e>d c>B|1 A>c e>g e<f f>g:|2 A>c e>g f<d d2||

